X:329
T: SCHAU WOL TRITT DER HANSLEIN DAHER
N: E0944
O: Europa, Mitteleuropa, Deutschland
R: Tanz - Lied, Reigen
M: 3/4
L: 1/8
K: F
 | A4A2 | F4F2 | G3GG2 | F4
F2 | A4A2 | F4F2 | G4G2 | F4
B2 | A3GF2 | G3FE2 | F2F2G2 | F6

@@@ Tune index: 4642
